X: 18
T:Morris Off
% Nottingham Music Database
S:Rattlebones
M:4/4
L:1/4
K:G
d|"G"g/2f/2g/2e/2 dg|"Am"a/2g/2f/2e/2 "D"d2|"C"c'a "G"bg|"D"a/2g/2f/2e/2 d2|
"Em"g/2f/2g/2e/2 dg|"C"a/2g/2f/2e/2 "D"d2|"C"c'/2b/2a/2g/2 "D7"f/2d/2e/2f/2|\
"G"gb g:|<end>
<start>
